X:115
T:Milko
C:Titi Winterstein
N:TablEdited by JeePee David Grisman's break
L:1/8
Q:1/4=280
M:4/4
K:C
"David Grisman's "z2 c2 B2 c2 | d2 c2 B2 c3/2c/ | ze z6 | d8 | z2 ^gg gg gg | 
ff ee z3c | d4 B2 c2 | z4 cB Ac | BD FB AB AF | EF ED CE DE | DC A,C A,G, A,C | 
FG FD GA zz | zD EF ^GF GA | BA Bc dd dd/d/ | ee ee ee ee | ee ^fa aa aa | aa g2 a2 g2 | 
a2 g2 a3e | fg ag fe fg | fA df ef ed | Bc dc BD ^GB | AB A^G FG FE | FE FE DF ED | 
CE DE DC A,2 | z8 | z2 C2 A,2 C2 | DD DD DD DD | E4 F4 | EF ED EF ED | EF ED EF ED | 
CE DE DC B,G, | A,A, A,A, A,A, A,A, | G,G, G,A, B,E DE | GE GA Bd2d/d/ | e4 g2 a2 | 
ab bb bz3 | fg ag fe fg | fA df ef ed | c4 B3c/B/ | A8 | ED EF ^GF GA | BA Bc dc BA | 
cB cB Ac BA | GA AA A3C | ^D2 [e^d][ed] [ed][ed] [e2d2] | [e^d][ed] [ed][ed] [ed][ed] [ee][ee] | 
[ee][ee] [ee][ee] [ee][ee] [ee][ee] | [ee][ee] [ee][ee] [ee][ee] [ee][ee] | (3gee ee (3aee ee | 
(3bee ee (3c'ee ee | (3bee ee (3aee ee | (3bee ee (3aee ee | (3^gee ee (3fee ee | 
(3eAA AA d4 | cB cB Ac BD | GB AG EG EG, | A,4 [c3^D3A,3][cDA,] | z2 [c^DA,][cDA,] [cDA,][cDA,] [c2D2A,2] | 
A,B, CD CB, CB,/B,/ | DD DD D3D | DE EF ED ^GA | Bc BA dc B2 | z6 D2 | E2 D2 C2 B,2 | 
A,8 | 


